##################
Log: 2014/11/12 09:46:27
/dev/ttyACM0
baudrate: 115200

start
echo: External Reset
Marlin 1.0.0
echo: Last Updated: Oct 24 2014 17:26:35 | Author: (jmil, Open3DLP with BariCUDA control)
Compiled: Oct 24 2014
echo: Free Memory: 5170  PlannerBufferBytes: 1360
echo:Hardcoded Default Settings Loaded
G28 Z
G0 Z80 F1000
G0 Z60 F300
ok
ok
ok
G0 Z100 F500
ok
##################
Log: 2014/11/12 09:49:55
/dev/ttyACM0
baudrate: 115200

start
echo: External Reset
Marlin 1.0.0
echo: Last Updated: Oct 24 2014 17:26:35 | Author: (jmil, Open3DLP with BariCUDA control)
Compiled: Oct 24 2014
echo: Free Memory: 5170  PlannerBufferBytes: 1360
echo:Hardcoded Default Settings Loaded
G28 Z
ok
G0 Z80 F1000
ok
##################
Log: 2014/11/12 09:51:10
/dev/ttyACM0
baudrate: 115200

start
echo: External Reset
Marlin 1.0.0
echo: Last Updated: Oct 24 2014 17:26:35 | Author: (jmil, Open3DLP with BariCUDA control)
Compiled: Oct 24 2014
echo: Free Memory: 5170  PlannerBufferBytes: 1360
echo:Hardcoded Default Settings Loaded
G28 Z
G0 Z80 F1000
G0 Z60 F300
ok
ok
ok
G0 Z100 F500
ok
here

##################
Log: 2014/11/12 09:59:29
/dev/ttyACM0
baudrate: 115200

start
echo: External Reset
Marlin 1.0.0
echo: Last Updated: Oct 24 2014 17:26:35 | Author: (jmil, Open3DLP with BariCUDA control)
Compiled: Oct 24 2014
echo: Free Memory: 5170  PlannerBufferBytes: 1360
echo:Hardcoded Default Settings Loaded
G28 Z
ok
G0 Z80 F1000
ok
here

##################
Log: 2014/11/12 10:01:12
/dev/ttyACM0
baudrate: 115200

start
echo: External Reset
Marlin 1.0.0
echo: Last Updated: Oct 24 2014 17:26:35 | Author: (jmil, Open3DLP with BariCUDA control)
Compiled: Oct 24 2014
echo: Free Memory: 5170  PlannerBufferBytes: 1360
echo:Hardcoded Default Settings Loaded
G28 Z
G0 Z80 F1000
G0 Z60 F300
ok
ok
ok
G0 Z100 F500
ok
